X:1517
T:Black Mill
Z: id:dc-reel-368
M:C
L:1/8
K:A Mixolydian
gf|edef g2fe|dBGB dBGB|edef gage|dBgB A2:|!
cd|e2ed eAAB|c2dB dBGB|e2ed eAAB|dBGB A2cd|!
e2ed eAAB|c2dB dBGB|edef gage|dBGB A2|]!


